src/assets/svg/icons/fa/nuevos/classic/light/warehouse classic light.svg

<svg xmlns="http://www.w3.org/2000/svg" viewBox="0 0 640 512"><!--! Font Awesome Pro 6.4.0 by @fontawesome - https://fontawesome.com License - https://fontawesome.com/license (Commercial License) Copyright 2023 Fonticons, Inc. --><path d="M326.2 36c-4-1.7-8.4-1.7-12.4 0L51.6 146.4C39.7 151.4 32 163 32 175.9V496c0 8.8-7.2 16-16 16s-16-7.2-16-16V175.9c0-25.8 15.4-49 39.2-59L301.4 6.5c11.9-5 25.3-5 37.3 0L600.8 116.9c23.7 10 39.2 33.2 39.2 59V496c0 8.8-7.2 16-16 16s-16-7.2-16-16V175.9c0-12.9-7.7-24.5-19.6-29.5L326.2 36zM96 224c0-17.7 14.3-32 32-32H512c17.7 0 32 14.3 32 32V496c0 8.8-7.2 16-16 16c-.1 0-.2 0-.2 0H112.2c-.1 0-.2 0-.2 0c-8.8 0-16-7.2-16-16V224zm32 256H512V416H128v64zM512 320H128v64H512V320zM128 288H512V224H128v64z"/></svg>

<svg xmlns="http://www.w3.org/2000/svg" viewBox="0 0 640 512"><path d="M326.2 35.98C322.2 34.3 317.8 34.3 313.8 35.98L51.58 146.4C39.72 151.4 32 162.1 32 175.9V496C32 504.8 24.84 512 16 512C7.164 512 0 504.8 0 496V175.9C0 150.1 15.43 126.9 39.16 116.9L301.4 6.484C313.3 1.469 326.7 1.469 338.6 6.484L600.8 116.9C624.6 126.9 640 150.1 640 175.9V496C640 504.8 632.8 512 624 512C615.2 512 608 504.8 608 496V175.9C608 162.1 600.3 151.4 588.4 146.4L326.2 35.98zM96 224C96 206.3 110.3 192 128 192H512C529.7 192 544 206.3 544 224V496C544 504.8 536.8 512 528 512C527.9 512 527.8 512 527.8 512H112.2C112.2 512 112.1 512 112 512C103.2 512 96 504.8 96 496L96 224zM128 480H512V416H128V480zM128 319.1V384H512V319.1H128zM128 287.1H512V224H128V287.1z"/></svg>
